public/img/icons/devices/sensor-light.svg

<svg width="41" height="40" viewBox="0 0 41 40" fill="none" xmlns="http://www.w3.org/2000/svg">
<path d="M20.0076 33.2866C19.3618 33.2866 18.8379 33.8105 18.8379 34.4563V38.8303C18.8379 39.4761 19.3618 40 20.0076 40C20.6533 40 21.1772 39.4761 21.1772 38.8303V34.4563C21.1772 33.8105 20.6533 33.2866 20.0076 33.2866Z" fill="black"/>
<path d="M13.349 31.526C12.7885 31.2032 12.0697 31.392 11.7468 31.9525L9.63895 35.6077C9.31607 36.1681 9.50492 36.887 10.0654 37.2099C10.2481 37.3134 10.4492 37.3682 10.6502 37.3682C11.0523 37.3682 11.4483 37.155 11.6676 36.7834L13.7754 33.1282C14.1044 32.5678 13.9155 31.8489 13.349 31.526Z" fill="black"/>
<path d="M28.2631 31.9585C27.9402 31.3981 27.2213 31.2031 26.6609 31.5321C26.1004 31.855 25.9055 32.5738 26.2344 33.1343L28.3423 36.7895C28.5616 37.1672 28.9515 37.3743 29.3596 37.3743C29.5607 37.3743 29.7617 37.3256 29.9444 37.2159C30.5049 36.893 30.6999 36.1742 30.3709 35.6137L28.2631 31.9585Z" fill="black"/>
<path d="M10.9492 19.8477C10.9492 15.1446 14.4582 11.2458 18.9906 10.6244V29.0648C14.4582 28.4495 10.9492 24.5507 10.9492 19.8477Z" fill="#FFC200"/>
<path d="M20.0078 8.87604C13.9585 8.87604 9.03613 13.7984 9.03613 19.8477C9.03613 25.8971 13.9585 30.8194 20.0078 30.8194C26.0571 30.8194 30.9795 25.8971 30.9795 19.8477C30.9795 13.7984 26.0571 8.87604 20.0078 8.87604ZM11.3755 19.8477C11.3755 15.4858 14.6286 11.8733 18.8321 11.3006V28.3948C14.6286 27.8221 11.3755 24.2096 11.3755 19.8477ZM21.1775 28.3948V11.3006C25.3809 11.8733 28.6341 15.4858 28.6341 19.8477C28.6341 24.2096 25.3809 27.8221 21.1775 28.3948Z" fill="black"/>
<path d="M38.8382 18.806H34.6469C34.0438 18.806 33.5199 19.2446 33.4529 19.8477C33.3737 20.5544 33.928 21.1514 34.6164 21.1514H38.8077C39.4108 21.1514 39.9347 20.7128 40.0018 20.1157C40.081 19.403 39.5266 18.806 38.8382 18.806Z" fill="black"/>
<path d="M5.36241 18.806H1.20158C0.598474 18.806 0.0745632 19.2446 0.00755131 19.8477C-0.0716445 20.5544 0.482726 21.1514 1.17112 21.1514H5.39287C6.08126 21.1514 6.63564 20.5544 6.55644 19.8477C6.49552 19.2446 5.96552 18.806 5.36241 18.806Z" fill="black"/>
<path d="M32.7274 13.8288C32.9284 13.8288 33.1294 13.7801 33.3122 13.6704L36.9004 11.5991C37.4609 11.2762 37.6558 10.5574 37.3268 9.99693C37.004 9.43646 36.2851 9.24152 35.7246 9.57049L32.1365 11.6418C31.576 11.9646 31.381 12.6835 31.71 13.244C31.9293 13.6217 32.3253 13.8288 32.7274 13.8288Z" fill="black"/>
<path d="M6.83071 26.2565L3.17551 28.3643C2.61505 28.6872 2.42011 29.4061 2.74908 29.9665C2.96839 30.3442 3.35827 30.5514 3.76644 30.5514C3.96747 30.5514 4.16851 30.5026 4.35127 30.393L8.00646 28.2851C8.56693 27.9623 8.76187 27.2434 8.4329 26.6829C8.11003 26.1225 7.39117 25.9336 6.83071 26.2565Z" fill="black"/>
<path d="M3.04173 11.5626L6.69692 13.6704C6.87968 13.774 7.08071 13.8288 7.28175 13.8288C7.68382 13.8288 8.0798 13.6217 8.29911 13.244C8.62199 12.6835 8.43314 11.9647 7.87267 11.6418L4.21748 9.53397C3.65702 9.21109 2.93816 9.39994 2.61529 9.96041C2.28632 10.5209 2.48126 11.2397 3.04173 11.5626Z" fill="black"/>
<path d="M36.9008 28.407L33.1786 26.2565C32.6182 25.9336 31.8993 26.1225 31.5764 26.6829C31.2536 27.2434 31.4424 27.9623 32.0029 28.2851L35.7251 30.4356C35.9078 30.5392 36.1089 30.594 36.3099 30.594C36.712 30.594 37.108 30.3808 37.3273 30.0092C37.6502 29.4426 37.4613 28.7298 36.9008 28.407Z" fill="black"/>
<path d="M20.0076 6.56107C20.6534 6.56107 21.1773 6.03716 21.1773 5.39141V1.16966C21.1773 0.523911 20.6534 0 20.0076 0C19.3619 0 18.8379 0.523911 18.8379 1.16966V5.39141C18.8319 6.03716 19.3558 6.56107 20.0076 6.56107Z" fill="black"/>
<path d="M26.6599 8.32167C26.8426 8.43133 27.0437 8.48007 27.2447 8.48007C27.6468 8.48007 28.0428 8.26685 28.2621 7.89523L30.3699 4.24004C30.6928 3.67958 30.5039 2.96072 29.9435 2.63785C29.383 2.31497 28.6642 2.50382 28.3413 3.06429L26.2335 6.71948C25.9045 7.28603 26.0994 7.9988 26.6599 8.32167Z" fill="black"/>
<path d="M11.7524 7.89526C11.9717 8.27296 12.3616 8.48009 12.7698 8.48009C12.9708 8.48009 13.1718 8.43135 13.3546 8.3217C13.9151 7.99882 14.11 7.27996 13.781 6.7195L11.6732 3.06431C11.3503 2.50385 10.6315 2.3089 10.071 2.63787C9.51056 2.96074 9.31562 3.6796 9.64458 4.24006L11.7524 7.89526Z" fill="black"/>
</svg>

<?xml version="1.0" encoding="utf-8"?>
<!-- Generator: Adobe Illustrator 24.0.1, SVG Export Plug-In . SVG Version: 6.00 Build 0)  -->
<svg version="1.1" id="Layer_1" xmlns="http://www.w3.org/2000/svg" xmlns:xlink="http://www.w3.org/1999/xlink" x="0px" y="0px"
	 viewBox="0 0 40 40" style="enable-background:new 0 0 40 40;" xml:space="preserve">
<style type="text/css">
	.st0{fill:#FFC200;}
</style>
<g>
	<path d="M20,33.3c-0.6,0-1.2,0.5-1.2,1.2v4.4c0,0.6,0.5,1.2,1.2,1.2c0.6,0,1.2-0.5,1.2-1.2v-4.4C21.2,33.8,20.6,33.3,20,33.3z"/>
	<path d="M13.3,31.5c-0.6-0.3-1.3-0.1-1.6,0.4l-2.1,3.7c-0.3,0.6-0.1,1.3,0.4,1.6c0.2,0.1,0.4,0.2,0.6,0.2c0.4,0,0.8-0.2,1-0.6
		l2.1-3.7C14.1,32.6,13.9,31.8,13.3,31.5z"/>
	<path d="M28.3,32c-0.3-0.6-1-0.8-1.6-0.4c-0.6,0.3-0.8,1-0.4,1.6l2.1,3.7c0.2,0.4,0.6,0.6,1,0.6c0.2,0,0.4,0,0.6-0.2
		c0.6-0.3,0.8-1,0.4-1.6L28.3,32z"/>
	<path class="st0" d="M10.9,19.8c0-4.7,3.5-8.6,8-9.2v18.4C14.5,28.4,10.9,24.6,10.9,19.8z"/>
	<path d="M20,8.9c-6,0-11,4.9-11,11c0,6,4.9,11,11,11s11-4.9,11-11C31,13.8,26.1,8.9,20,8.9z M11.4,19.8c0-4.4,3.3-8,7.5-8.5v17.1
		C14.6,27.8,11.4,24.2,11.4,19.8z M21.2,28.4V11.3c4.2,0.6,7.5,4.2,7.5,8.5S25.4,27.8,21.2,28.4z"/>
	<path d="M38.8,18.8h-4.2c-0.6,0-1.1,0.4-1.2,1c-0.1,0.7,0.5,1.3,1.2,1.3h4.2c0.6,0,1.1-0.4,1.2-1C40.1,19.4,39.5,18.8,38.8,18.8z"
		/>
	<path d="M5.4,18.8H1.2c-0.6,0-1.1,0.4-1.2,1c-0.1,0.7,0.5,1.3,1.2,1.3h4.2c0.7,0,1.2-0.6,1.2-1.3C6.5,19.2,6,18.8,5.4,18.8z"/>
	<path d="M32.7,13.8c0.2,0,0.4,0,0.6-0.2l3.6-2.1c0.6-0.3,0.8-1,0.4-1.6c-0.3-0.6-1-0.8-1.6-0.4l-3.6,2.1c-0.6,0.3-0.8,1-0.4,1.6
		C31.9,13.6,32.3,13.8,32.7,13.8z"/>
	<path d="M6.8,26.3l-3.7,2.1c-0.6,0.3-0.8,1-0.4,1.6c0.2,0.4,0.6,0.6,1,0.6c0.2,0,0.4,0,0.6-0.2L8,28.3c0.6-0.3,0.8-1,0.4-1.6
		C8.1,26.1,7.4,25.9,6.8,26.3z"/>
	<path d="M3,11.6l3.7,2.1c0.2,0.1,0.4,0.2,0.6,0.2c0.4,0,0.8-0.2,1-0.6c0.3-0.6,0.1-1.3-0.4-1.6L4.2,9.5C3.7,9.2,2.9,9.4,2.6,10
		C2.3,10.5,2.5,11.2,3,11.6z"/>
	<path d="M36.9,28.4l-3.7-2.2c-0.6-0.3-1.3-0.1-1.6,0.4c-0.3,0.6-0.1,1.3,0.4,1.6l3.7,2.2c0.2,0.1,0.4,0.2,0.6,0.2
		c0.4,0,0.8-0.2,1-0.6C37.6,29.4,37.5,28.7,36.9,28.4z"/>
	<path d="M20,6.6c0.6,0,1.2-0.5,1.2-1.2V1.2C21.2,0.5,20.6,0,20,0c-0.6,0-1.2,0.5-1.2,1.2v4.2C18.8,6,19.4,6.6,20,6.6z"/>
	<path d="M26.7,8.3c0.2,0.1,0.4,0.2,0.6,0.2c0.4,0,0.8-0.2,1-0.6l2.1-3.7c0.3-0.6,0.1-1.3-0.4-1.6c-0.6-0.3-1.3-0.1-1.6,0.4
		l-2.1,3.7C25.9,7.3,26.1,8,26.7,8.3z"/>
	<path d="M11.7,7.9c0.2,0.4,0.6,0.6,1,0.6c0.2,0,0.4,0,0.6-0.2c0.6-0.3,0.8-1,0.4-1.6l-2.1-3.7c-0.3-0.6-1-0.8-1.6-0.4
		C9.5,3,9.3,3.7,9.6,4.2L11.7,7.9z"/>
</g>
</svg>
